X:125
T:Johnny, Don't Get Drunk
R:reel
M:C|
K:D
"D (Bm)"fa2f a2g2| "A7"fdec "D"d4| "G (Bm)"BABc dBAG| "A7 (E)"F2E2 "(A)"E4|
"D (Bm)"fa2f a2g2| "A7"fdec "D"d4| "G"BABc d2g2| "A7"fdec "D"d4 :|
|:"D (Hold A)"F(AA2) A4| FGAB A3A| "G"BABc dBAG| "A7"F2E2 E4|
"D"F(AA2) A2d2| BABcd3A| BABc d2g2| "A7"fdec "D"d4 :|
